X:40
T:Jigs simple chords 60
M:3/4
L:1/8
K:C#dor
d[eC,E,G,] de G2 | G[A2F,2A,2C2]A G2 | G[eC,E,G,] de G2 | G[A2G,2B,2D2F2]B ^c2 | d[eC,E,G,] de G2 |
G[A2F,2A,2C2]A G2 | G[eC,E,G,] de G2 | G[A2G,2B,2D2F2]B ^c2 | d[e2C,2E,2G,2]^c d2 |
B[^c2=C,2E,2G,2]^c BA | G[e2C,2E,2G,2]^c d2 | d[e2C,2E,2G,2]^f2< g2 |[a2F,2A,2C2]^f g2 |
e[^f2G,2B,2D2=F2]d2< e2 |[eC,E,G,] de G2 | G[A2G,2B,2D2F2]B ^c2 |


